src/pos-icons/pot-mix.svg

<svg height="24" viewBox="0 0 24 24" width="24" xmlns="http://www.w3.org/2000/svg"><path d="m14.6 9 3.4-5.9 1.7 1-2.8 4.9zm-.6 1h-11v2h2v7c0 1.1.9 2 2 2h10c1.1 0 2-.9 2-2v-7h2v-2z"/></svg>

<?xml version="1.0" encoding="UTF-8"?><!DOCTYPE svg PUBLIC "-//W3C//DTD SVG 1.1//EN" "http://www.w3.org/Graphics/SVG/1.1/DTD/svg11.dtd"><svg xmlns="http://www.w3.org/2000/svg" xmlns:xlink="http://www.w3.org/1999/xlink" version="1.1" id="mdi-pot-mix" width="24" height="24" viewBox="0 0 24 24"><path d="M14.6 9L18 3.1L19.7 4.1L16.9 9H14.6M14 10H3V12H5V19C5 20.1 5.9 21 7 21H17C18.1 21 19 20.1 19 19V12H21V10H14Z" /></svg>
